X:1
T:The Caledonia's Return to Caledonia
C:T. S. Macdonald
L:1/4
M:C
K:G
%%text Slow
d/c/ | B G D B, | G,3 A/B/ | c e g B | c3 d/c/ | B G d B | c/d/e/f/ g f/e/ | d B A B | G3 ||
B/c/ | d g f g | d3 c/d/ | e c d B | A3 d/c/ | B G d B c/d/e/c/ A B/c/ | d B A B | G3 |]

